icons/gluten_free_fill.svg

<svg width="48" height="48" viewBox="0 0 48 48" fill="none" xmlns="http://www.w3.org/2000/svg">
<path fill-rule="evenodd" clip-rule="evenodd" d="M44 24C44 35.0457 35.0457 44 24 44C12.9543 44 4 35.0457 4 24C4 12.9543 12.9543 4 24 4C35.0457 4 44 12.9543 44 24ZM36.0013 37.4155C32.8166 40.2664 28.6107 42 24 42C14.0589 42 6 33.9411 6 24C6 19.262 7.83061 14.9515 10.8231 11.7373L14.7929 15.7071C15.1834 16.0976 15.8166 16.0976 16.2071 15.7071C16.5976 15.3166 16.5976 14.6834 16.2071 14.2929L12.265 10.3508C15.4161 7.63912 19.5166 6 24 6C33.9411 6 42 14.0589 42 24C42 28.6107 40.2664 32.8166 37.4155 36.0013L28.8713 27.457C30.1792 26.3992 31 24.7835 31 23L28.8384 23.3403C27.2297 23.5936 25.8656 24.5011 25 25.7658V22.8426L26.1616 22.6597C28.9476 22.2211 31 19.8203 31 17L28.8384 17.3403C27.2297 17.5936 25.8656 18.5011 25 19.7658V18.0002L25.4647 17.5355C27.4173 15.5829 27.4173 12.4171 25.4647 10.4645L24.0002 9L22.5358 10.4645C20.5831 12.4171 20.5831 15.5829 22.5358 17.5355L23 17.9998V19.7658C22.1344 18.5011 20.7703 17.5936 19.1616 17.3403L17 17C17 19.8203 19.0524 22.2211 21.8384 22.6597L23 22.8426V25.7658C22.1344 24.5011 20.7703 23.5936 19.1616 23.3403L17 23C17 25.8203 19.0524 28.2211 21.8384 28.6597L23 28.8426V31.7658C22.1344 30.5011 20.7703 29.5936 19.1616 29.3403L17 29C17 31.8203 19.0524 34.2211 21.8384 34.6597L23 34.8426V38H25V34.4534C25.3264 34.6416 25.7377 34.7265 26.1619 34.6597C27.979 34.3736 29.484 33.2528 30.3111 31.7253L36.0013 37.4155ZM28.0943 29.5085L27.0367 28.4509C26.7547 28.5421 26.4624 28.6123 26.1616 28.6597L25 28.8426V31.7661C25.7286 30.7014 26.8106 29.8898 28.0943 29.5085Z" fill="black"/>
</svg>

<svg
  xmlns="http://www.w3.org/2000/svg"
  width="24"
  height="24"
  viewBox="0 0 24 24"
  fill="none"
  stroke="currentColor"
  stroke-width="2"
  stroke-linecap="round"
  stroke-linejoin="round"
>
  <path
    fill-rule="evenodd"
    d="M44 24c0 11.046-8.954 20-20 20S4 35.046 4 24 12.954 4 24 4s20 8.954 20 20m-7.999 13.416A17.93 17.93 0 0 1 24 42c-9.941 0-18-8.059-18-18 0-4.738 1.83-9.048 4.823-12.263l3.97 3.97a1 1 0 0 0 1.414-1.414l-3.942-3.942A17.93 17.93 0 0 1 24 6c9.941 0 18 8.059 18 18 0 4.61-1.734 8.817-4.584 12.001l-8.545-8.544A5.73 5.73 0 0 0 31 23l-2.162.34A5.72 5.72 0 0 0 25 25.766v-2.923l1.162-.183A5.73 5.73 0 0 0 31 17l-2.162.34A5.72 5.72 0 0 0 25 19.766V18l.465-.465a5 5 0 0 0 0-7.07L24 9l-1.464 1.464a5 5 0 0 0 0 7.071L23 18v1.766a5.72 5.72 0 0 0-3.838-2.426L17 17a5.73 5.73 0 0 0 4.838 5.66l1.162.183v2.923a5.72 5.72 0 0 0-3.838-2.426L17 23a5.73 5.73 0 0 0 4.838 5.66l1.162.183v2.923a5.72 5.72 0 0 0-3.838-2.426L17 29a5.73 5.73 0 0 0 4.838 5.66l1.162.183V38h2v-3.547a1.78 1.78 0 0 0 1.162.207 5.73 5.73 0 0 0 4.15-2.935zm-7.907-7.907-1.057-1.058a6 6 0 0 1-.875.209L25 28.843v2.923a5.73 5.73 0 0 1 3.094-2.257"
    clip-rule="evenodd"
  />
</svg>
